img/instagram.svg

<svg width="16" height="17" viewBox="0 0 16 17" fill="none" xmlns="http://www.w3.org/2000/svg">
<g clip-path="url(#clip0_190_1610)">
<path d="M8.13677 4.68162C6.02163 4.68162 4.31555 6.38494 4.31555 8.49666C4.31555 10.6084 6.02163 12.3117 8.13677 12.3117C10.2519 12.3117 11.958 10.6084 11.958 8.49666C11.958 6.38494 10.2519 4.68162 8.13677 4.68162ZM8.13677 10.9769C6.76991 10.9769 5.65248 9.86463 5.65248 8.49666C5.65248 7.12869 6.76658 6.01639 8.13677 6.01639C9.50695 6.01639 10.6211 7.12869 10.6211 8.49666C10.6211 9.86463 9.50363 10.9769 8.13677 10.9769ZM13.0056 4.52557C13.0056 5.02029 12.6065 5.41541 12.1143 5.41541C11.6188 5.41541 11.223 5.01697 11.223 4.52557C11.223 4.03416 11.6221 3.63572 12.1143 3.63572C12.6065 3.63572 13.0056 4.03416 13.0056 4.52557ZM15.5364 5.42869C15.4799 4.2367 15.2072 3.18084 14.3325 2.31092C13.4612 1.441 12.4036 1.16873 11.2097 1.10897C9.9792 1.03924 6.29101 1.03924 5.0605 1.10897C3.8699 1.16541 2.81233 1.43768 1.93768 2.3076C1.06302 3.17752 0.793639 4.23338 0.733776 5.42537C0.663937 6.65389 0.663937 10.3361 0.733776 11.5646C0.790313 12.7566 1.06302 13.8125 1.93768 14.6824C2.81233 15.5523 3.86658 15.8246 5.0605 15.8844C6.29101 15.9541 9.9792 15.9541 11.2097 15.8844C12.4036 15.8279 13.4612 15.5556 14.3325 14.6824C15.2039 13.8125 15.4766 12.7566 15.5364 11.5646C15.6063 10.3361 15.6063 6.65721 15.5364 5.42869ZM13.9468 12.8828C13.6874 13.5336 13.1852 14.0349 12.53 14.2972C11.5489 14.6857 9.22094 14.5961 8.13677 14.5961C7.05259 14.5961 4.72128 14.6824 3.74353 14.2972C3.09169 14.0383 2.58951 13.5369 2.32678 12.8828C1.93768 11.9033 2.02747 9.57908 2.02747 8.49666C2.02747 7.41424 1.941 5.0867 2.32678 4.11053C2.58619 3.45975 3.08837 2.95838 3.74353 2.69608C4.72461 2.3076 7.05259 2.39725 8.13677 2.39725C9.22094 2.39725 11.5523 2.31092 12.53 2.69608C13.1818 2.95506 13.684 3.45643 13.9468 4.11053C14.3359 5.09002 14.2461 7.41424 14.2461 8.49666C14.2461 9.57908 14.3359 11.9066 13.9468 12.8828Z" fill="black"/>
</g>
<defs>
<clipPath id="clip0_190_1610">
<rect width="14.8991" height="17" fill="white" transform="translate(0.68396)"/>
</clipPath>
</defs>
</svg>

<svg xmlns="http://www.w3.org/2000/svg" width="16" height="17" fill="none"><g clip-path="url(#a)"><path fill="#000" d="M8.137 4.682a3.812 3.812 0 0 0-3.821 3.815 3.812 3.812 0 0 0 3.82 3.815 3.812 3.812 0 0 0 3.822-3.815 3.812 3.812 0 0 0-3.821-3.815Zm0 6.295a2.487 2.487 0 0 1-2.485-2.48 2.485 2.485 0 0 1 4.97 0 2.487 2.487 0 0 1-2.485 2.48Zm4.869-6.451c0 .494-.4.89-.892.89a.89.89 0 1 1 .891-.89Zm2.53.903c-.056-1.192-.329-2.248-1.204-3.118-.87-.87-1.928-1.142-3.122-1.202-1.23-.07-4.919-.07-6.15 0-1.19.056-2.248.329-3.122 1.199-.875.87-1.144 1.925-1.204 3.117-.07 1.229-.07 4.911 0 6.14.056 1.192.329 2.248 1.204 3.117.874.87 1.929 1.143 3.123 1.202 1.23.07 4.918.07 6.149 0 1.194-.056 2.251-.328 3.122-1.202.872-.87 1.145-1.925 1.204-3.117.07-1.229.07-4.908 0-6.136Zm-1.59 7.454a2.513 2.513 0 0 1-1.416 1.414c-.981.389-3.31.3-4.393.3-1.084 0-3.416.085-4.393-.3a2.513 2.513 0 0 1-1.417-1.414c-.39-.98-.3-3.304-.3-4.386 0-1.083-.086-3.41.3-4.386.26-.651.761-1.153 1.417-1.415.98-.388 3.309-.299 4.393-.299 1.084 0 3.415-.086 4.393.3.652.258 1.154.76 1.417 1.414.389.979.3 3.303.3 4.386 0 1.082.089 3.41-.3 4.386Z"/></g><defs><clipPath id="a"><path fill="#fff" d="M.684 0h14.899v17H.684z"/></clipPath></defs></svg>
